X:64
T:Woodland Flowers
C:from the playing of Saskia Jackson
Q:1/4=160
I:abc2nwc
M:6/8
L:1/8
K:G
D2B A2G|D2B A2G|E2C E2G|c6|d2B c2A|B2G E2F|
G2B AGE|D6|D2B A2G|D2B A2G|E2C E2G|
c6|d2B c2A|B2G E2F|G2D BdB|G6|]
[|BAG D2D|BAG D2D|cBA E2E|cBA E2E|F2G F2E|
D2c B2A|G2A BAG|D6|BAG D2D|BAG D2D|
cBA E2E|cBA E2E|F2G F2E|D2c B2A|G2D BdB|G6|]



